!!!COM: Britten, (Edward) Benjamin
!!!OTL: [T806_Bri-w33p66m3-9]
**kern	**dynam	**kern	**dynam	**kern	**text	**dynam	**kern	**dynam	**kern	**dynam
*part5	*part5	*part4	*part4	*part3	*part3	*part3	*part2	*part2	*part1	*part1
*staff5	*	*staff4	*	*staff3	*staff3	*	*staff2	*	*staff1	*
*I"Violin II	*	*I"Violin I	*	*I"Soprano	*	*	*I"Oboe	*	*I"Flute	*
*I'Vln. II	*	*I'Vln. I	*	*I'S.	*	*	*I'Ob.	*	*I'Fl.	*
!!pagebreak:original
*clefG2	*	*clefG2	*	*clefG2	*	*	*clefG2	*	*clefG2	*
*k[f#c#g#]	*	*k[f#c#g#]	*	*k[f#c#g#]	*	*	*k[f#c#g#]	*	*k[f#c#g#]	*
*A:	*	*A:	*	*A:	*	*	*A:	*	*A:	*
*M6/8	*	*M6/8	*	*M6/8	*	*	*M6/8	*	*M6/8	*
=1	=1	=1	=1	=1	=1	=1	=1	=1	=1	=1
*tremolo	*	*	*	*	*	*	*	*	*	*
*	*	*tremolo	*	*	*	*	*	*	*	*
!LO:TX:a:t=[pizz.]	!	!LO:TX:a:t=[pizz.]	!	!	!	!	!	!	!	!
!LO:TX:b:i:t=  sempre	!	!LO:TX:b:i:t=  sempre	!	!	!	!	!LO:TX:b:i:t=sempre	!	!	!
16e 16bLL	pp	16a 16eeLL	pp	8r	.	.	8aL	pp	4%3r	.
16e 16b	.	16a 16ee	.	.	.	.	.	.	.	.
!	!	!	!	!LO:TX:a:i:t=dolce	!	!	!	!	!	!
16e 16b	.	16a 16ee	.	8.cc#	Fair	.	(8fn	.	.	.
16e 16b	.	16a 16ee	.	.	.	.	.	.	.	.
16e 16b	.	16a 16ee	.	.	.	.	8ccnJ	.	.	.
16e 16b	.	16a 16ee	.	16aa	and	.	.	.	.	.
16e 16b	.	16a 16ee	.	4ee	fair,	.	8b-XL	.	.	.
16e 16b	.	16a 16ee	.	.	.	.	.	.	.	.
16e 16b	.	16a 16ee	.	.	.	.	8ff#X	.	.	.
16e 16b	.	16a 16ee	.	.	.	.	.	.	.	.
16e 16b	.	16a 16ee	.	8b	and	.	8eeJ	.	.	.
16e 16bJJ	.	16a 16eeJJ	.	.	.	.	.	.	.	.
=2	=2	=2	=2	=2	=2	=2	=2	=2	=2	=2
16e 16bLL	.	16a 16eeLL	.	8.cc#	twice	.	8aL)	.	4%3r	.
16e 16b	.	16a 16ee	.	.	.	.	.	.	.	.
16e 16b	.	16a 16ee	.	.	.	.	(8fn	.	.	.
16e 16b	.	16a 16ee	.	16aa	so	.	.	.	.	.
16e 16b	.	16a 16ee	.	4ee	fair,	.	8ccnJ	.	.	.
16e 16b	.	16a 16ee	.	.	.	.	.	.	.	.
16e 16b	.	16a 16ee	.	.	.	.	8b-XL	.	.	.
16e 16b	.	16a 16ee	.	.	.	.	.	.	.	.
16e 16b	.	16a 16ee	.	8b	As	.	8ff#X	.	.	.
16e 16b	.	16a 16ee	.	.	.	.	.	.	.	.
16e 16b	.	16a 16ee	.	[8cc#	fair,	.	8eeJ	.	.	.
16e 16bJJ	.	16a 16eeJJ	.	.	.	.	.	.	.	.
=3	=3	=3	=3	=3	=3	=3	=3	=3	=3	=3
16e 16bLL	< [	16a 16eeLL	< [	16cc#]	.	.	8aL)	.	4%3r	.
16e 16b	.	16a 16ee	.	16aa	as	.	.	.	.	.
16e 16b	.	16a 16ee	.	8.ee	fair,	.	(8fn	.	.	.
16e 16b	.	16a 16ee	.	.	.	.	.	.	.	.
16e 16b	.	16a 16ee	.	.	.	.	8ccnJ	.	.	.
16e 16b	.	16a 16ee	.	16aa	as	.	.	.	.	.
16e 16b	.	16a 16ee	.	8.cc#	fair	.	8b-XL	.	.	.
16e 16b	.	16a 16ee	.	.	.	.	.	.	.	.
16e 16b	.	16a 16ee	.	.	.	.	8ff#X	<	.	.
16e 16b	.	16a 16ee	.	16ff#	as	<	.	.	.	.
16e 16b	.	16a 16ee	.	16ee	a-	.	8eeJ	.	.	.
16e 16bJJ	.	16a 16eeJJ	.	16dd	-ny	.	.	.	.	.
!!linebreak:original
=4	=4	=4	=4	=4	=4	=4	=4	=4	=4	=4
!LO:TX:b:i:t=poco	!	!LO:TX:b:i:t=poco	!	!	!	!	!	!	!	!
16e 16bLL	> ]	16a 16eeLL	> ]	4cc#	may	[	8bbnL	.	4.r	.
16e 16b	.	16a 16ee	.	.	.	.	.	.	.	.
16e 16b	.	16a 16ee	.	.	.	.	8ddd	[ >	.	.
16e 16b	.	16a 16ee	.	.	.	.	.	.	.	.
16e 16b	.	16a 16ee	.	4f#	be;	.	8ccc#XJ	.	.	.
16e 16b	.	16a 16ee	.	.	.	.	.	.	.	.
16e 16b	.	16a 16ee	.	.	.	.	8gg#L	.	8r	.
16e 16b	.	16a 16ee	.	.	.	.	.	.	.	.
16e 16b	.	16a 16ee	.	16r	.	.	8dd#XJ)	.	8r	.
16e 16b	.	16a 16ee	.	16cc#	The	.	.	.	.	.
!	!	!	!	!	!	!	!	!	!LO:TX:b:i:t=  dolce	!
!	!	!	!	!	!	!	!	!	!LO:TX:a:t=Solo	!
16e 16b	.	16a 16ee	.	16cc#	fair-	.	8r	]	(8ddn	pp
16e 16bJJ	.	16a 16eeJJ	.	16dd	-est	.	.	.	.	.
=5	=5	=5	=5	=5	=5	=5	=5	=5	=5	=5
16b^LL	.	16f#^ 16dd#XLL	.	8.cc#^	shep-	.	4%3r	.	8ggnL	.
16b^	.	16f#^ 16dd#X	.	.	.	.	.	.	.	.
16b^	.	16f#^ 16dd#X	.	.	.	.	.	.	8aa	.
16b^	.	16f#^ 16dd#X	.	16a#X	-herd	.	.	.	.	.
16b^	.	16f#^ 16dd#X	.	[8b	on	.	.	.	8cccnJ	.
16b^	.	16f#^ 16dd#X	.	.	.	.	.	.	.	.
16b^	.	16f#^ 16dd#X	.	16b]	.	.	.	.	8bbL	.
16b^	.	16f#^ 16dd#X	.	16ff#	our	.	.	.	.	.
16b^	.	16f#^ 16dd#X	.	8b	green,	.	.	.	8fff#)	.
16b^	.	16f#^ 16dd#X	.	.	.	.	.	.	.	.
16b^	.	16f#^ 16dd#X	.	16r	.	.	.	.	(8ddJ	.
16b^JJ	.	16f#^ 16dd#XJJ	.	16cc#	the	.	.	.	.	.
=6	=6	=6	=6	=6	=6	=6	=6	=6	=6	=6
16b^LL	.	16f#^ 16dd#XLL	.	16cc#	fair-	.	4%3r	.	8ggnL	.
16b^	.	16f#^ 16dd#X	.	16dd	-est	.	.	.	.	.
16b^	.	16f#^ 16dd#X	.	8.cc#^	shep-	.	.	.	8aa	.
16b^	.	16f#^ 16dd#X	.	.	.	.	.	.	.	.
16b^	.	16f#^ 16dd#X	.	.	.	.	.	.	8ccc#XJ	.
16b^	.	16f#^ 16dd#X	.	16a#X	-herd	.	.	.	.	.
16b^	.	16f#^ 16dd#X	.	8.b	on	.	.	.	8bbL	.
16b^	.	16f#^ 16dd#X	.	.	.	.	.	.	.	.
16b^	.	16f#^ 16dd#X	.	.	.	.	.	.	8fff#)	.
16b^	.	16f#^ 16dd#X	.	16ff#	our	.	.	.	.	.
!	!	!	!	!	!	!	!	!	!LO:TX:b:i:t=cresc.	!
16b^	.	16f#^ 16dd#X	.	8b	green,	.	.	.	(8ddJ	.
16b^JJ	.	16f#^ 16dd#XJJ	.	.	.	.	.	.	.	.
=7	=7	=7	=7	=7	=7	=7	=7	=7	=7	=7
!LO:TX:b:i:t=poco cresc.	!	!LO:TX:b:i:t=poco cresc.	!	!	!	!	!	!	!	!
16b^LL	.	16f#^ 16dd#XLL	.	16r	.	.	4%3r	.	8ggnL	.
!	!	!	!	!LO:TX:a:i:t=cresc.	!	!	!	!	!	!
16b^	.	16f#^ 16dd#X	.	16cc#	A	.	.	.	.	.
16b^	.	16f#^ 16dd#X	.	16cc#	love	.	.	.	8ffn	.
16b^	.	16f#^ 16dd#X	.	16dd	for	.	.	.	.	.
16b^	.	16f#^ 16dd#X	.	8.cc#^	a-	.	.	.	8bb-XJ	.
16b^JJ	.	16f#^ 16dd#XJJ	.	.	.	.	.	.	.	.
16d 16bLL	.	16gnLL	.	.	.	.	.	.	8ee-XL)	.
16d 16b	.	16gn	.	16b	-ny,	.	.	.	.	.
16d 16b	.	16gn	.	8.a	a-	.	.	.	(8aa-X	.
16d 16b	.	16gn	.	.	.	.	.	.	.	.
16d 16b	.	16gn	.	.	.	.	.	.	8gg-XJ)	.
16d 16bJJ	.	16gnJJ	.	16b	-ny,	.	.	.	.	.
*	*	*Xtremolo	*	*	*	*	*	*	*	*
*Xtremolo	*	*	*	*	*	*	*	*	*	*
=	=	=	=	=	=	=	=	=	=	=
*-	*-	*-	*-	*-	*-	*-	*-	*-	*-	*-
!!!system-decoration: [(s1,s2)]s3[(s4,s5)]
